X: 25290
T: Man Of The House, The
R: reel
M: 4/4
K: Eminor
|:E2BE GABG|E2BE FDFA|E2BE GABd|1 eBBA GEFD:|2 eBAc BEE2||
efge fgaf|gfed edBd|efge fgaf|gfed Bgfg|
efge fgaf|gfed efga|bgaf gfed|eBBA GEFD||

